icon-themes/breeze_svg/cmd/32/symbolshapes.right-bracket.svg

<svg viewBox="0 0 32 32" xmlns="http://www.w3.org/2000/svg"><path d="m17 4v1h2c.55228 0 1 .44772 1 1v20c0 .5523-.44772 1-1 1h-2v1h2c1.10457 0 2-.8954 2-2v-20c0-1.10457-.89543-2-2-2z" fill="#4d4d4d"/></svg>

<svg xmlns="http://www.w3.org/2000/svg" viewBox="0 0 32 32">
 <path 
     style="fill:#4d4d4d" 
     d="M 17 4 L 17 5 L 19 5 C 19.55228 5 20 5.44772 20 6 L 20 26 C 20 26.5523 19.55228 27 19 27 L 17 27 L 17 28 L 19 28 C 20.10457 28 21 27.1046 21 26 L 21 6 C 21 4.89543 20.10457 4 19 4 L 17 4 z "
     />
</svg>
